X:2324
L:1/8
M:2/4
K:F
 C |"F" CF FF | FA AA |"Bb" BD DD | D3 B |"C7" BG GG | Gc cB |"F" AF"C7" GE |"F" F3 :|

